Flat-Remix-Blue-Dark/status/scalable/16/package-installed-outdated.svg

<svg xmlns="http://www.w3.org/2000/svg" width="36pt" height="36pt" version="1.1" viewBox="0 0 36 36"> <g> <path style="fill:rgb(21.176%,48.235%,94.117%)" d="M 36 34.195312 L 36 1.796875 C 36 0.800781 35.195312 -0.00390625 34.199219 -0.00390625 L 1.800781 -0.00390625 C 0.804688 -0.00390625 0 0.800781 0 1.796875 L 0 34.195312 C 0 35.1875 0.804688 35.996094 1.800781 35.996094 L 34.199219 35.996094 C 35.195312 35.996094 36 35.1875 36 34.195312 Z M 36 34.195312"/> <path style="fill:rgb(100.000%,100.000%,100.000%)" d="M 15.75 6.75 L 15.75 22.5 L 20.25 22.476562 L 20.25 6.75 Z M 15.75 24.753906 L 15.75 29.25 L 20.25 29.25 L 20.25 24.753906 Z M 15.75 24.753906"/> </g> </svg>

<svg width="16" height="16" version="1.1" viewBox="0 0 12 12" xmlns="http://www.w3.org/2000/svg"><g transform="matrix(.33333 0 0 .33333 6e-8 .0013021)"><path d="m36 34.195v-32.398c0-0.99609-0.80469-1.8008-1.8008-1.8008h-32.398c-0.99609 0-1.8008 0.80469-1.8008 1.8008v32.398c0 0.99219 0.80469 1.8008 1.8008 1.8008h32.398c0.99609 0 1.8008-0.80859 1.8008-1.8008z" fill="#357af0"/><path d="m15.75 6.75v15.75l4.5-0.02344v-15.727zm0 18.004v4.4961h4.5v-4.4961z" fill="#fff"/></g></svg>
